!!!!SEGMENT: 030-1-Sm-001.krn
!!!COM: Chopin, Fryderyk
!!!OTL: Mazourka No. 1
!!!OPS: OP. 30
!!!PTL: Quatre Mazurkas pour le piano
!!!PPR: M. Schlesinger
!!!PPP: Paris
!!!AFR: mazurka
!!!AGN: Mazurka
!!!NIFC-rismID: 300605152
!!!NIFC-shelfmark: PL-Wbfc 1664/n
!!!OMD: All.tto non tanto.
**kern	**kern	**dynam
*part1	*part1	*part1
*staff2	*staff1	*
*clefF4	*clefG2	*
*k[b-e-a-]	*k[b-e-a-]	*
*c:	*c:	*
*M3/4	*M3/4	*
*	*	*
4r	(>[>4g^	.
=1	=1	=1
*	*^	*
4r	8gL]	4ryy	p
.	8qb-/	.	.
.	8a-	.	.
4d 4G	8g	4g	.
.	8bn	.	.
4d 4G	8cc	4f	.
.	8ddJ	.	.
=2	=2	=2	=2
.	8qff/	.	.
4r	8ee-L	4r	.
.	8ddJ	.	.
4G' 4C	2cc	4e-	.
4G' 4C	.	4e-)	.
=3	=3	=3	=3
4r	(8ddL	4r	.
.	8ee-J	.	.
.	8qgg/	.	.
4Bn' 4G 4C	4ff	4f'>	.
4d' 4G 4C	8ee-L	4f'>	.
.	8ddJ	.	.
=4	=4	=4	=4
4r	8ddL	4r	.
.	8ee-J	.	.
4c' 4G 4C	2cc	4e-'>	.
4c' 4G 4C	.	4e-'>)	.
!!LO:LB:g=original
=5	=5	=5	=5
4r	(>8dL	4ryy	.
.	8qf/	.	.
.	8e-	.	.
4An 4D	8d	4d	.
.	8f#X	.	.
4A 4D	8g	4c	.
.	8anJ	.	.
=6	=6	=6	=6
.	8qcc/	.	.
*^	*	*	*
4r	4ryy	8b-L	4r	.
.	.	8anJ	.	.
[2G	(4GG	2g	4B-	.
.	4BB-	.	4d)	.
=7	=7	=7	=7	=7
4G]	4C	(8anL	4e-	.
.	.	8b-J	.	.
.	.	8qdd/	.	.
2ryy	4An 4AAn	4cc	4g 4e-	.
.	4D)	8b-L	4f#X 4c	.
.	.	8aJ	.	.
*v	*v	*	*	*
=8	=8	=8	=8
4r	[2.g	4r	]
4GG	.	4d 4Bn	.
4G	.	8e-L 8c	.
.	.	8enJ 8c#X)	.
=9	=9	=9	=9
4r	(8gL]	4f 4d	.
.	8a-M	.	.
4d 4G	8g	4f	.
.	8bn	.	.
4d 4G	8cc	4f	.
.	8ddJ	.	.
!!LO:LB:g=original
=10	=10	=10	=10
.	8qff/	.	.
4r	8ee-L	4r	.
.	8ddJ	.	.
4G' 4C	2cc	4e-'>	.
4G' 4C	.	4e-'>)	.
=11	=11	=11	=11
4r	(8ddL	4r	.
.	8ee-J	.	.
.	8qgg/	.	.
4Bn' 4G 4C	4ff	4f'>	.
4d' 4G 4C	8ee-L	4f'>	.
.	8ddJ	.	.
=12	=12	=12	=12
4r	8ddL	4r	.
.	8ee-J	.	.
4c' 4G 4C	2cc	4e-'>	.
4c' 4G 4C	.	4e-'>)	.
=13	=13	=13	=13
4r	(>8dL	4ryy	.
.	8e-M	.	.
4An 4D	8d	4d	.
.	8f#X	.	.
4A 4D	8g	4c	.
.	8anJ	.	.
=14	=14	=14	=14
.	8qcc/	.	.
*^	*	*	*
4r	4ryy	8b-L	4r	.
.	.	8anJ	.	.
[2G	(4GG	2g	4B-	.
.	4BB-	.	4d)	.
=15	=15	=15	=15	=15
4G]	4C	(8anL	4e-	.
.	.	8b-J	.	.
.	.	8qdd/	.	.
2ryy	4An 4AAn	4cc	4g 4e-	.
.	4D	8b-L	4f#X 4c	.
.	.	8aJ	.	.
*v	*v	*	*	*
!!LO:LB:g=original
=16	=16	=16	=16
4GG\)	2g	4r	]
4G^	.	4d 4Bn	.
[4B-X [>4En	8.gL	[4d-X	.
.	16gJk)	.	.
=17	=17	=17	=17
*^	*	*	*
!	!	!LO:TX:a:B:t=Con anima	!	!
4B-] 4EnX]	2.AA-	(8g	4d-X]	.
.	.	2a-	.	.
4A- 4F	.	.	[2c	.
4A- 4F	.	.	.	.
!	!	!LO:TX:t=P:niejednoznaczny początek łuku 2c lub4g:problem	!	!
.	.	8g	.	.
*v	*v	*	*	*
=18	=18	=18	=18
*	*ped	*	*
4AAA-	8.enL	2.c_	.
.	16fJk	.	.
4A- 4C	4.dd	.	.
4A- 4F	.	.	.
*	*Xped	*	*
.	8cc	.	.
=19	=19	=19	=19
*	*ped	*	*
4BBB-	8f	4c]	[
.	2g	.	.
4A- 4BB-	.	4c	.
4A- 4BB-	.	4d	.
*	*Xped	*	*
.	8f	.	.
=20	=20	=20	=20
*	*ped	*	*
4EE-'	8.e-L	8.e-	.
.	.	.	<
.	16b-Jk	16ryy	.
.	8qb-/	.	.
*clefG2	*	*	*
4g 4e- 4B-	4.gg	2ryy	.
*	*Xped	*	*
4g 4e- 4Bn	.	.	.
.	.	.	[
.	8ff	.	.
=21	=21	=21	=21
*^	*	*	*
4a- 4e-	8.cL	2ryy	8.ee-L	.
.	16dJk	.	16ccJk	.
4g	4e-	.	4b-	.
.	.	8qdd/	.	.
*clefF4	*	*	*	*
4e- 4A-	4ryy	4cc	4a-	.
*v	*v	*	*	*
!!LO:LB:g=original
=22	=22	=22	=22
4d 4B-	8.b-L	4f	.
.	16a-Jk	.	.
2B- 2E-	[2g	2e-	.
=23	=23	=23	=23
*^	*	*	*
4Bn	2G	8gL]	4d	.
.	.	8fJ	.	.
4C\	.	4e-	2c	.
.	.	8qg/	.	.
4A-\	4FF	4f	.	.
*v	*v	*	*	*
=24	=24	=24	=24
2D\ 2GG\	8d/L	8ryy	.
.	8BnJ)	8ryy	.
.	4G<	4ryy	.
!	!	!	!LO:HP:a
4EEn\	(8.g/L	[>4d-X\ [>4B\	>
.	16gJk	.	]
*	*v	*v	*
=25	=25	=25
*	*^	*
4FF	8g	4d-X] 4B]	.
.	2a-	.	.
4A-	.	[>2c	.
4A- 4C	.	.	.
.	8g	.	.
=26	=26	=26	=26
*	*ped	*	*
!	!	!LO:TX:t=P:brak łuku ligatury:problem	!
4AAA-'	8.enL	4ryy	.
.	16fJk	.	.
4A- 4C	4.dd	2c_>	.
4A- 4F	.	.	.
*	*Xped	*	*
.	8cc	.	[
=27	=27	=27	=27
*	*ped	*	*
4BBB-	8f	4c]	.
.	2g	.	.
4A- 4BB-	.	4c	.
4A- 4BB-	.	4d	.
.	8f	.	.
*	*Xped	*	*
.	.	.	.
!!LO:PB:g=original
=28	=28	=28	=28
*	*ped	*	*
4EE-	8.e-L	8.e-	.
.	16b-Jk	16ryy	.
*clefG2	*	*	*
(>4g 4e- 4B-	2ee-	2ryy	.
*	*Xped	*	*
.	.	.	.
4g 4c 4An	.	.	.
*	*v	*v	*
=29	=29	=29
4f#X 4c 4An	4dd	.
4f# 4c 4A	8.cc#XL	.
.	16ddk	.
4f# 4c 4A-X	8.ee-	.
.	16ddJk	.
=30	=30	=30
4Bn 4G	4g	.
!LO:TX:t=dim_:problem:dynamics with extention lines	!	!
!	!	!LO:HP:b:i:t=dim
4f#X 4An 4G	8.cc#XL	>
.	16ddk	.
4f# 4A 4G	8.ee-	.
.	16ddJk	.
=31	=31	=31
4fn 4Bn 4G	4gg	.
4f#X 4An 4G	8.cc#XL	.
.	16ddk	.
4f# 4A 4G	8.ee-	.
.	16ddJk	.
=32	=32	=32
4Bn 4G	4g	.
4f#X 4An 4G	8.cc#XL	.
.	16ddk	.
4f# 4A 4G	8.ee-	.
.	16ddJk	.
!!LO:LB:g=original
=33	=33	=33
[2.fn [2.Bn [2.G	4gg	.
.	8.cc#XL	.
.	16ddk	.
.	8.ee-	.
.	16ddJk	]
=34	=34	=34
*	*^	*
2.f_ 2.BnX_ 2.G_)	4g	[2.g	.
.	8.cc#XL	.	.
.	16ddk	.	.
.	8.ee-	.	.
.	16ddJk	.	.
=35	=35	=35	=35
2f] 2BnX] 2G]	4gg	2g]	.
!	!LO:TX:b:i:t=poco ritenuto	!	!
.	8.cc#XL	.	.
.	16ddk	.	.
4r	8.ee-	4r	.
.	16ddJk	.	>
*	*v	*v	*
=36	=36	=36
2.r	2aa-	.
.	.	]
.	4gg)	.
*clefF4	*	*
=37	=37	=37
*	*^	*
!	!LO:TX:b:B:t=In tempo	!	!
4r	(8gL	4r	.
.	8qb-/	.	.
.	8a-	.	.
4d 4G	8g	4g	.
.	8bn	.	.
4d 4G	8cc	4f	.
.	8ddJ	.	.
=38	=38	=38	=38
.	8qff/	.	.
4r	8ee-L	4r	.
.	8ddJ	.	.
4G' 4C	2cc	4e-'>	.
4G' 4C	.	4e-'>)	.
!!LO:LB:g=original
=39	=39	=39	=39
4r	(8ddL	4r	.
.	8ee-J	.	.
.	8qgg/	.	.
4Bn 4G 4C	4ff	4f'>	.
4d 4G 4C	8ee-L	4f'>	.
.	8ddJ	.	.
=40	=40	=40	=40
4r	8ddL	4r	.
.	8ee-J	.	.
4c 4G 4C	2cc	4e-	.
4c 4G 4C	.	4e-)	.
=41	=41	=41	=41
4r	(>8dL	4ryy	.
.	8qf/	.	.
.	8e-	.	.
4An 4D	8d	4d	.
.	8f#X	.	.
4A 4D	8g	4c	.
.	8anJ	.	.
=42	=42	=42	=42
.	8qcc/	.	.
*^	*	*	*
4r	4ryy	8b-L	4r	.
.	.	8anJ	.	.
[2G	(4GG	2g	4B-	.
.	4BB-	.	4d)	.
=43	=43	=43	=43	=43
4ryy	4C 4G]\	(8anL	4e-	.
.	.	8b-J	.	.
.	.	8qdd/	.	.
4AAn\	4An	4cc	4g 4e-	.
4ryy	4D)	8b-L	4f#X 4c	.
.	.	8aJ	.	.
*v	*v	*	*	*
!!LO:LB:g=original
=44	=44	=44	=44
4r	[2.g	4r	]
4GG	.	4d 4Bn	.
4G	.	8e-L 8c	.
.	.	8enJ 8c#X)	.
=45	=45	=45	=45
4r	(8gL]	4f 4d	.
.	8a-M	.	.
4d 4G	8g	4f	.
.	8bn	.	.
4d 4G	8cc	4f	.
.	8ddJ	.	.
=46	=46	=46	=46
.	8qff/	.	.
4r	8ee-L	4r	.
.	8ddJ	.	.
4G 4C	2cc	4e-'>	.
4G 4C	.	4e-'>)	.
=47	=47	=47	=47
4r	(8ddL	4r	.
.	8ee-J	.	.
.	8qgg/	.	.
4Bn 4G 4C	4ff	4f'>	.
4d 4G 4C	8ee-L	4f'>	.
.	8ddJ	.	.
=48	=48	=48	=48
4r	8ddL	4r	.
.	8ee-J	.	.
4c 4G 4C	2cc	4e-'>	.
4c 4G 4C	.	4e-'>)	.
!!LO:LB:g=original
=49	=49	=49	=49
4r	(8ddL	4r	.
.	8ee-J	.	.
.	8qgg/	.	.
4Bn 4G 4C	4ff	4f	.
4B 4G 4C	8ee-L	4f	.
.	8ddJ	.	.
=50	=50	=50	=50
4r	8aa-L	4r	.
.	8ddJ	.	.
.	8qgg/	.	.
4Bn 4G 4C	4ff	4f	.
4B 4G 4C	8ee-L	4f	.
.	8ddJ	.	.
*	*v	*v	*
=51	=51	=51
*	*ped	*
4CC	8aa-/L	.
.	8ddJ	.
.	8qgg/	.
4f 4Bn 4A-	4ff/	.
[4f [4B [>4A-	8ee-/L	.
.	8ddJ	.
*	*Xped	*
.	.	.
=52	=52	=52
4f] 4BnX] 4A-]	8dd/L	.
.	8ee-J	.
4f 4c 4A-	[>2cc/	.
4f 4c 4A-	.	.
=53	=53	=53
*	*^	*
(8DL	2.cc]	(8d/L	.
8E-J	.	8e-J	.
!	!	!LO:TX:a:B:t=FINE.	!
2C;)	.	2c/;>))	.
*	*v	*v	*
==	==	==
*-	*-	*-
!!title: @{OTL}; @{OPS} @{ONM} publisher: @{PPR}
!!!RDF**kern: > = above
!!!RDF**kern: < = below
!!!ENC: Marta Lawrence
!!!END: 2018-06-02
!!!EED: Jędrzej Mróz
!!!EST: 2018-06-09
!!!EED2: Jacek Iwaszko
!!!EST: 2018-10-16
!!!EED3: Marta Lawrence
!!!EST: 2018-11-15
!!!EED4: Leszek Kubiak
!!!EST: 2018-12-20
!!!rism-genre: Mazurka
!!!rism-key: C minor
!!!rism-opus: op.  30, no. 1
!!!rism-title: Mazurka in C minor op.  30, no. 1
!!!rism-permalink: https://opac.rism.info/search?id=300605152&View=rism
!!!rism-773a-OPR: 300605151
!!!rism-parent-permalink: https://opac.rism.info/search?id=300605151&View=rism
